!!!COM:	Bach, Johann Sebastian
!!!OMV:	O Gott, du frommer Gott
!!!OTL:	O Gott, du frommer Gott
**kern	**fb	**kern	**kern	**kern	**kern	**kern	**kern	**kern	**kern
*part9	*part9	*part8	*part7	*part6	*part5	*part4	*part3	*part2	*part1
*staff9	*	*staff8	*staff7	*staff6	*staff5	*staff4	*staff3	*staff2	*staff1
*I"Contrabass	*	*I"Voice	*I"Voice	*I"Voice	*I"Voice	*I"Viola	*I"Oboe	*I"Oboe	*I"Baroque Trumpet in C
*I'Cb.	*	*I'V	*I'V	*I'V	*I'V	*I'Vla.	*I'Ob.	*I'Ob.	*I'Bq. Tpt. C
*clefF4	*	*clefF4	*clefGv2	*clefG2	*clefG2	*clefC3	*clefG2	*clefG2	*clefG2
*Trd0c0	*	*	*	*	*	*	*	*	*
*k[]	*	*k[]	*k[]	*k[]	*k[]	*k[]	*k[]	*k[]	*k[]
*M4/4	*	*M4/4	*M4/4	*M4/4	*M4/4	*M4/4	*M4/4	*M4/4	*M4/4
4r	.	4r	4r	4r	4r	8eL	4ee	8gg#XL	8bL
.	.	.	.	.	.	8g#XJ	.	[8bbJ	16ccL
.	.	.	.	.	.	.	.	.	16ddJJ
=2	=2	=2	=2	=2	=2	=2	=2	=2	=2
16r	.	1r	1r	1r	1r	8aL	4ee	8bbL]	4cc
16ALL	.	.	.	.	.	.	.	.	.
16B	.	.	.	.	.	8c	.	[8aa	.
16cJJ	.	.	.	.	.	.	.	.	.
4D	6 5	.	.	.	.	8d	8ffL	8aa]	4b
.	#4|	.	.	.	.	8eJ	8eeJ	8gg#XJ	.
16r	.	.	.	.	.	8AL	4cc	8aaL	4a
16CLL	.	.	.	.	.	.	.	.	.
16D	.	.	.	.	.	8c	.	8ee	.
16EJJ	.	.	.	.	.	.	.	.	.
4FF	6 4 2	.	.	.	.	8d	8bL	8dd	8bL
.	.	.	.	.	.	8eJ	8aJ	8ccJ	8ccJ
=3	=3	=3	=3	=3	=3	=3	=3	=3	=3
16r	.	1r	1r	1r	1r	8fL	4.g	8bL	4dd
16GLL	7	.	.	.	.	.	.	.	.
16A	.	.	.	.	.	8g	.	[8bb	.
16BJJ	.	.	.	.	.	.	.	.	.
4C	7	.	.	.	.	8c	.	8bb]	4ee
.	6	.	.	.	.	8fJ	8a	8aaJ	.
16r	.	.	.	.	.	8BL	4.b	8gg#XL	4dd
16ELL	#	.	.	.	.	.	.	.	.
16F#X	.	.	.	.	.	8e	.	[8ee	.
16G#XJJ	.	.	.	.	.	.	.	.	.
4AA	.	.	.	.	.	8A	.	8ee]	4cc
.	.	.	.	.	.	8aJ	8a	8ff#XJ	.
=4	=4	=4	=4	=4	=4	=4	=4	=4	=4
!!pagebreak:original
16r	.	4r	4r	4r	4r	8bL	4f#X	8dd#XL	4b
16BLL	#	.	.	.	.	.	.	.	.
16c	6 #4| #2\	.	.	.	.	8BJ	.	[8bb	.
16dJJ	.	.	.	.	.	.	.	.	.
4E	nr7 #	4E	4e	4g#X	4b	4e	4g#X	8bb]	4b
.	.	.	.	.	.	.	.	8ddnJ	.
16r	.	4A	4e	4a	4cc	4e	4a	8ccL	4cc
16ALL	.	.	.	.	.	.	.	.	.
16B	.	.	.	.	.	.	.	[8aa	.
16cJJ	.	.	.	.	.	.	.	.	.
4D	6 5	8DL	4d	8fL	4b	4d	8fnL	8aa]	4b
.	#4|	8EJ	.	8eJ	.	.	8eJ	8gg#XJ	.
=5	=5	=5	=5	=5	=5	=5	=5	=5	=5
16r	.	8AAL	4c	8eL	4a	4c	8eL	8aaL	4a
16CLL	6	.	.	.	.	.	.	.	.
16D	.	8G	.	8f	.	.	8f	8ee	.
16EJJ	.	.	.	.	.	.	.	.	.
4FF	6 4 2	8F	8dL	8g	8bL	8dL	8g	8dd	8bL
.	.	8EJ	8eJ	8aJ	8ccJ	8eJ	8aJ	8ccJ	8ccJ
16r	.	8DL	4f	4b	4dd	4f	4b	8bL	4dd
16GLL	7_	.	.	.	.	.	.	.	.
16A	.	8GJ	.	.	.	.	.	[8bb	.
16BJJ	..	.	.	.	.	.	.	.	.
4C	7	4C	4e	8ccL	4ee	[4e	8ccL	8bb]	4ee
.	6	.	.	8eJ	.	.	8eJ	8aaJ	.
=6	=6	=6	=6	=6	=6	=6	=6	=6	=6
16r	.	4BB	8eL	4g#X	4dd	8eL]	4g#X	8gg#XL	4dd
16ELL	7 #	.	.	.	.	.	.	.	.
16F#X	.	.	8B	.	.	8B	.	[8ee	.
16G#XJJ	.	.	.	.	.	.	.	.	.
4AA	.	4AA	8c	4a	4cc	8c	4a	8ee]	4cc
.	.	.	8AJ	.	.	8AJ	.	8ff#XJ	.
16r	.	4BB	4F#X	4d#X	4b	8F#XL	4d#X	8dd#XL	4b
16BLL	#	.	.	.	.	.	.	.	.
16c	6 #4| #2\	.	.	.	.	8f#X	.	[8bb	.
16dJJ	.	.	.	.	.	.	.	.	.
4E	nr7 #	4r	4r	4r	4r	8g#X	[4b	8bb]	4dd
.	.	.	.	.	.	8eJ	.	8gg#J	.
=7	=7	=7	=7	=7	=7	=7	=7	=7	=7
!!pagebreak:original
16r	.	2r	2r	2r	2r	8aL	8bL]	8eeL	4cc
16CLL	6	.	.	.	.	.	.	.	.
16D	.	.	.	.	.	8c	8a	[8aa	.
16EJJ	.	.	.	.	.	.	.	.	.
4EE	5 4	.	.	.	.	8d	8b	8aa]	4b
.	#	.	.	.	.	8eJ	[8eeJ	8gg#XJ	.
16r	.	4r	4r	4r	4r	8AL	8eeL]	8aaL	4cc
16ALL	.	.	.	.	.	.	.	.	.
16B	.	.	.	.	.	8a	8ff	[8ff	.
16cJJ	.	.	.	.	.	.	.	.	.
4BB	#6\ nr5	4B	4B	4g#X	4dd	8g#X	8dd	8ff]	4dd
.	.	.	.	.	.	8BJ	8bJ	[8eeJ	.
=8	=8	=8	=8	=8	=8	=8	=8	=8	=8
16r	.	4A	4c	8eL	4cc	4c	8eL	8eeL]	4cc
16CLL	6	.	.	.	.	.	.	.	.
16D	.	.	.	8fJ	.	.	8fJ	[8dd	.
16EJJ	.	.	.	.	.	.	.	.	.
4FF	6 4 2	8GL	4d	4g	4b	4d	4g	8dd]	4b
.	.	8FJ	.	.	.	.	.	[8ggJ	.
16r	.	4E	4.c	4.g	4cc	4.c	4.g	8ggL]	4cc
16cLL	.	.	.	.	.	.	.	.	.
16d	.	.	.	.	.	.	.	[8cc	.
16eJJ	.	.	.	.	.	.	.	.	.
4F	5	4F	.	.	4a	.	.	8cc]	4a
.	.	.	8A	8f	.	8A	8f	8ddJ	.
=	=	=	=	=	=	=	=	=	=
16r	.	4C#X	2A	4.e	4g	2A	4.e	8eeL	4g
16ALL	7 #	.	.	.	.	.	.	.	.
16B	.	.	.	.	.	.	.	[8a	.
16c#XJJ	.	.	.	.	.	.	.	.	.
16DLL	9	4D	.	.	4f	.	.	8a]	4f
16BB	.	.	.	.	.	.	.	.	.
16C	2	.	.	16dLL	.	.	16dLL	8bJ	.
16DJJ	7	.	.	16cJJ	.	.	16cJJ	.	.
4EE	#	4E	4e	4B	4e	4e	4B	4g#X	4e
=9:|!	=9:|!	=9:|!	=9:|!	=9:|!	=9:|!	=9:|!	=9:|!	=9:|!	=9:|!
4r	.	4r	4r	4r	4r	8eL	8bL	8r	4g
.	.	.	.	.	.	8cJ	[8ccJ	[8ee	.
=10	=10	=10	=10	=10	=10	=10	=10	=10	=10
!!pagebreak:original
16r	.	2r	2r	2r	2r	8AL	8ccL]	8eeL]	4f
16GLL	7	.	.	.	.	.	.	.	.
16A	.	.	.	.	.	8B	8gJ	[8dd	.
16BJJ	.	.	.	.	.	.	.	.	.
4C	9	.	.	.	.	8c	4g	8dd]	4e
.	8	.	.	.	.	8EJ	.	[8ccJ	.
16r	.	4r	4r	4r	4r	8FL	8aL	8ccL]	4d
16GLL	4	.	.	.	.	.	.	.	.
16A	2	.	.	.	.	[8G	8gJ	8b	.
16BJJ	.	.	.	.	.	.	.	.	.
4C#X	6 5	4C#X	8AL	4e	4g	8G]	4e	8e	4g
.	.	.	8EJ	.	.	8EJ	.	[8eeJ	.
=11	=11	=11	=11	=11	=11	=11	=11	=11	=11
16r	.	8DL	8FL	4A	4f	8FL	4A	8eeL]	4f
16DLL	.	.	.	.	.	.	.	.	.
16E	.	8B	8d	.	.	8d	.	[8dd	.
16FJJ	.	.	.	.	.	.	.	.	.
4GG#X	6	8G#X	8B	8BL	4e	8B	8BL	8dd]	4e
.	.	8AJ	8AJ	8cJ	.	8AJ	8cJ	8ccJ	.
16r	.	4F	8AL	4.d	4d	8AL	4.d	8bL	4d
16BBLL	7	.	.	.	.	.	.	.	.
16C	.	.	8d	.	.	8d	.	[8aa	.
16DJJ	.	.	.	.	.	.	.	.	.
4EE	4	4E	8B	.	4e	8B	.	8aa]	4e
.	#	.	[8eJ	16cLL	.	[8eJ	16cLL	8gg#XJ	.
.	.	.	.	16BJJ	.	.	16BJJ	.	.
=12	=12	=12	=12	=12	=12	=12	=12	=12	=12
16r	.	8FL	8eL]	4A	4c	8eL]	4A	8aaL	4c
16AALL	.	.	.	.	.	.	.	.	.
16BB	.	8EJ	16dL	.	.	16dL	.	[8ffJ	.
16CJJ	.	.	16cJJ	.	.	16cJJ	.	.	.
4DD	6	4D	8BL	4B	4d	8BL	4B	8ffL]	4d
.	.	.	8dJ	.	.	8dJ	.	16ggL	.
.	.	.	.	.	.	.	.	16ffJJ	.
16r	.	4C	4G	4c	4e	8GL	4c	8eeL	4e
16CLL	.	.	.	.	.	.	.	.	.
16D	.	.	.	.	.	8d	.	8ff	.
16EJJ	.	.	.	.	.	.	.	.	.
4GG#X	6	4r	4r	4r	4r	8e	8r	8ee	4b
.	.	.	.	.	.	8G#XJ	[8b	8ddJ	.
=13	=13	=13	=13	=13	=13	=13	=13	=13	=13
!!pagebreak:original
16r	.	2r	2r	2r	2r	8AL	8bL]	8ccL	4cc
16ALL	9	.	.	.	.	.	.	.	.
16B	.	.	.	.	.	8e	8aJ	[8aa	.
16cJJ	.	.	.	.	.	.	.	.	.
4D#X	6 5	.	.	.	.	8f#X	[4b	8aa]	8bL
.	.	.	.	.	.	8d#XJ	.	8ff#XJ	8aJ
16r	.	4r	4r	4r	4r	8eL	4b]	8bbL	4g#X
16DnLL	6 #4| 2	.	.	.	.	.	.	.	.
16E	.	.	.	.	.	8dn	.	[8ee	.
16FJJ	.	.	.	.	.	.	.	.	.
4GG#X	6	4G#X	4e	4e	4b	8c	4e	8ee]	4b
.	.	.	.	.	.	8BJ	.	8ddJ	.
=14	=14	=14	=14	=14	=14	=14	=14	=14	=14
16r	.	4A	8eL	4a	4cc	4A	4a	8ccL	4cc
16AALL	.	.	.	.	.	.	.	.	.
16BB	.	.	16d#XL	.	.	.	.	[8ff#XJ	.
16CJJ	.	.	16eJJ	.	.	.	.	.	.
4DD#X	6	8D#XL	8f#XL	4f#X	8bL	4B	4f#X	8ff#L]	8bL
.	.	8BBJ	8BJ	.	8aJ	.	.	16eeL	8aJ
.	.	.	.	.	.	.	.	16dd#XJJ	.
16r	.	4E	8BL	8eL	4g#X	8BL	8eL	[2ee	4g#X
16BBLL	#6\ 4 3	.	.	.	.	.	.	.	.
16C	.	.	8dn	8fn	.	8d	8fn	.	.
16DJJ	.	.	.	.	.	.	.	.	.
4EE	6 4 #2\	8F#XL	8c	8e	8aL	8c	8e	.	8aL
.	7 5 #	8G#XJ	8BJ	8dJ	8bJ	8BJ	8dJ	.	8bJ
=15	=15	=15	=15	=15	=15	=15	=15	=15	=15
!!pagebreak:original
16r	.	4A	8AL	8cL	4cc	8AL	8cL	8eeL]	4cc
16ALL	.	.	.	.	.	.	.	.	.
16B	.	.	8c	16dL	.	8c	16dL	[8aa	.
16cJJ	.	.	.	16eJJ	.	.	16eJJ	.	.
4D	6 5	4D	8B	4f	4dd	8B	4f	8aa]	4dd
.	.	.	8AJ	.	.	8AJ	.	8bbJ	.
16r	.	4E	4e	4e	4b	8eL	4e	8gg#XL	4b
16G#XLL	6	.	.	.	.	.	.	.	.
16A	.	.	.	.	.	8G#X	.	8ee	.
16BJJ	.	.	.	.	.	.	.	.	.
4C	6	4r	4r	4r	4r	8A	4d	8aa	4ee
.	.	.	.	.	.	8cJ	.	8ggnJ	.
=16	=16	=16	=16	=16	=16	=16	=16	=16	=16
16r	.	2r	2r	2r	2r	8dL	4a	8ff#XL	4dd
16DLL	7 #	.	.	.	.	.	.	.	.
16E	.	.	.	.	.	8F#X	.	[8aa	.
16F#XJJ	.	.	.	.	.	.	.	.	.
4GG	.	.	.	.	.	8G	4d	8aa]	4b
.	.	.	.	.	.	8AJ	.	[8ggJ	.
16r	.	4r	4r	4r	4r	8BL	[4g	8ggL]	4dd
16GLL	.	.	.	.	.	.	.	.	.
16A	.	.	.	.	.	8GJ	.	8ffn	.
16BJJ	.	.	.	.	.	.	.	.	.
4C	.	8cL	4c	8gL	4ee	4c	8gL]	8ee	4ee
.	.	8AJ	.	8ccJ	.	.	8ccJ	8aaJ	.
=17	=17	=17	=17	=17	=17	=17	=17	=17	=17
!!pagebreak:original
16r	.	4F#X	4d	4a	4dd	4d	4a	8ddL	4dd
16DLL	#	.	.	.	.	.	.	.	.
16E	.	.	.	.	.	.	.	[8aaJ	.
16F#XJJ	.	.	.	.	.	.	.	.	.
4GG	.	4G	8dL	4b	8bL	8dL	4b	8aaL]	8bL
.	.	.	8cJ	.	8ccJ	8cJ	.	16ggL	8ccJ
.	.	.	.	.	.	.	.	16ff#XJJ	.
16r	.	4.G	4B	4g	4dd	4B	4g	8ggL	4dd
16GLL	.	.	.	.	.	.	.	.	.
16A	.	.	.	.	.	.	.	8ffn	.
16BJJ	.	.	.	.	.	.	.	.	.
8C#X	6 5	.	8c#XL	4a	4a	8c#XL	4a	8ee	4a
8r	.	8Fn	8dJ	.	.	8dJ	.	8ddJ	.
=18	=18	=18	=18	=18	=18	=18	=18	=18	=18
16r	.	4E	4e	4c#X	4g	4e	4c#X	8cc#XL	4g
16AALL	.	.	.	.	.	.	.	.	.
16BB	.	.	.	.	.	.	.	[8aa	.
16C#XJJ	.	.	.	.	.	.	.	.	.
8DD	.	8FL	8AL	4d	4f	8AL	4d	8aa]	4f
8r	.	8GJ	8dJ	.	.	8dJ	.	8bb-XJ	.
16r	.	4A	4c#X	4A	4e	4c#X	8AL	8cc#L	4e
16ALL	#	.	.	.	.	.	.	.	.
16B	4 #2\	.	.	.	.	.	8eJ	[8aa	.
16c#XJJ	.	.	.	.	.	.	.	.	.
8D	nr7 #	4r	4r	4r	4r	8cnL	4f#X	8aa]	4d
8r	.	.	.	.	.	8AJ	.	8ccnJ	.
=19	=19	=19	=19	=19	=19	=19	=19	=19	=19
!!pagebreak:original
16r	.	2r	2r	2r	2r	8eL	8gL	8bL	4g
16ELL	5	.	.	.	.	.	.	.	.
16F#X	.	.	.	.	.	8B	8b	[8gg	.
16GJJ	.	.	.	.	.	.	.	.	.
8AA	7	.	.	.	.	8c	8a	8gg]	4a
8r	#6\	.	.	.	.	8dJ	8ddJ	8ff#XJ	.
16r	.	4r	4r	4r	4r	4G	4dd	8ggL	4b
16GLL	.	.	.	.	.	.	.	.	.
16A	.	.	.	.	.	.	.	[8dd	.
16BJJ	.	.	.	.	.	.	.	.	.
8C	6 #4| 2	4D	4A	4f#X	4d	4A	4f#X	8dd]	4d
8r	.	.	.	.	.	.	.	8ccJ	.
=20	=20	=20	=20	=20	=20	=20	=20	=20	=20
16r	.	8EL	4.e	4B	4g	4.e	4g	8bL	4g
16ELL	.	.	.	.	.	.	.	.	.
16F#X	.	8D	.	.	.	.	.	[8gg	.
16GJJ	.	.	.	.	.	.	.	.	.
8AA	5	8C	.	8eL	4a	.	8ccL	8gg]	4a
8r	#6\	8DJ	16dLL	8f#XJ	.	16dLL	8aJ	8ff#XJ	.
.	.	.	16cJJ	.	.	16cJJ	.	.	.
16r	.	8GL	8BL	8dL	4b	8BL	8gL	8ggL	4b
16ELL	.	.	.	.	.	.	.	.	.
16F#	.	8E	8GJ	8e	.	8GJ	8bJ	[8ccJ	.
16GJJ	.	.	.	.	.	.	.	.	.
4FF#X	6	8F#X	4A	8A	4dd	4A	[4a	8ccL]	4dd
.	.	8DJ	.	8aJ	.	.	.	16bL	.
.	.	.	.	.	.	.	.	16aJJ	.
=21	=21	=21	=21	=21	=21	=21	=21	=21	=21
!!pagebreak:original
16r	.	8GL	8BL	8aL	2b	8BL	8aL]	8ddL	4b
16GLL	9	.	.	.	.	.	.	.	.
16A	7	8EJ	16c#XL	16gL	.	16c#XL	16gL	[8ggJ	.
16BJJ	.	.	16dJJ	16f#XJJ	.	16dJJ	16f#XJJ	.	.
8C#X	7 5	4C#X	4e	4g	.	4e	4g	8ggL]	4b
8r	.	.	.	.	.	.	.	16ff#XL	.
.	.	.	.	.	.	.	.	16eeJJ	.
16r	.	4D	4A	4f#	4a	8AL	4d	8ff#L	4a
16CnLL	6 #4| 2	.	.	.	.	.	.	.	.
16D	.	.	.	.	.	8G	.	8gg	.
16EJJ	.	.	.	.	.	.	.	.	.
4FF#X	6	4r	4r	4r	4r	8F#X	4d	8aa	4cc
.	.	.	.	.	.	8f#XJ	.	[8ddJ	.
=22	=22	=22	=22	=22	=22	=22	=22	=22	=22
16r	.	2r	2r	2r	2r	8g#XL	8eL	8ddL]	4b
16G#XLL	6 5	.	.	.	.	.	.	.	.
16A	.	.	.	.	.	8e	8g#X	[8ee	.
16BJJ	.	.	.	.	.	.	.	.	.
4C	6 3	.	.	.	.	8c	8a	8ee]	4a
.	.	.	.	.	.	8dJ	8ccJ	[8ffJ	.
16r	.	4r	4r	4r	4r	8eL	4b	8ffL]	4g
16ELL	9	.	.	.	.	.	.	.	.
16F#X	7	.	.	.	.	8B	.	[8ee	.
16GnJJ	.	.	.	.	.	.	.	.	.
4AA	5	4A	4e	4a	4cc	8c	4a	8ee]	4cc
.	.	.	.	.	.	8dJ	.	8ff#XJ	.
=23	=23	=23	=23	=23	=23	=23	=23	=23	=23
!!pagebreak:original
16r	.	8EL	4.e	8gL	4b	4.e	8gL	[4gg	4b
16CLL	7 5	.	.	.	.	.	.	.	.
16D	.	8CJ	.	8e	.	.	8e	.	.
16EJJ	.	.	.	.	.	.	.	.	.
4FF	7	4F	.	8c	4a	.	8c	8ggL]	4a
.	6	.	8d	[8dJ	.	8d	[8dJ	[8ffJ	.
16r	.	8BBL	8gL	8d]	4g	8gL	8dL]	8ffL]	4g
16GGLL	.	.	.	.	.	.	.	.	.
16AA	.	8GGJ	8B	4g	.	8B	[8g	16eeL	.
16BBJJ	.	.	.	.	.	.	.	16ddJJ	.
4CC	.	4C	8c	.	4e	8c	8g]	8eeL	4e
.	.	.	8dJ	8f	.	8dJ	8fJ	[8bb-XJ	.
=24	=24	=24	=24	=24	=24	=24	=24	=24	=24
16r	.	4C#X	4e	4e	4g	4e	4e	8bb-L]	4g
16ALL	7 #	.	.	.	.	.	.	.	.
16B	.	.	.	.	.	.	.	[8aa	.
16c#XJJ	.	.	.	.	.	.	.	.	.
4D	.	[4D	4A	4f	4f	4A	4f	8aa]	4f
.	.	.	.	.	.	.	.	8bbnJ	.
16r	.	8DL]	8BL	8BL	[2e	8BL	4B	8gg#XL	[2e
16G#XLL	6 5	.	.	.	.	.	.	.	.
16A	.	8d	8G#X	8B	.	8G#X	.	[8ee	.
16BJJ	.	.	.	.	.	.	.	.	.
4C	6	8c	8A	8c	.	8A	8cL	8ee]	.
.	.	8BJ	8BJ	8dJ	.	8BJ	8dJ	8ddJ	.
=25	=25	=25	=25	=25	=25	=25	=25	=25	=25
!!pagebreak:original
16r	.	4A	8cL	8e	1e_	8cL	8e	4cc	1e_
16DLL	7 5 2	.	.	.	.	.	.	.	.
16E	6 4	.	8AJ	4e	.	8AJ	4e	.	.
16FJJ	.	.	.	.	.	.	.	.	.
4GG#X	6	4G#X	4.e	.	.	4.e	.	8bL	.
.	5	.	.	8d	.	.	8d	[8bbJ	.
16r	.	4A	.	8cL	.	.	8cL	8bbL]	.
16G#XLL	6 4 2	.	.	.	.	.	.	.	.
16A	.	.	8eL	8B	.	8eL	8B	8gg#XJ	.
16BJJ	.	.	.	.	.	.	.	.	.
16CLL	6	4AA	8c	8c	.	8c	8c	[4aa	.
16AA	.	.	.	.	.	.	.	.	.
16BB	.	.	8AJ	8dJ	.	8AJ	8dJ	.	.
16CJJ	.	.	.	.	.	.	.	.	.
=26	=26	=26	=26	=26	=26	=26	=26	=26	=26
1EE	5 4	1E	2B	2e	1e]	1B	1e	4aa]	1e]
.	#	.	.	.	.	.	.	8gg#XL	.
.	#2\	.	.	.	.	.	.	8ff#XJ	.
.	#	.	2B	2e	.	.	.	2gg#	.
==	==	==	==	==	==	==	==	==	==
*-	*-	*-	*-	*-	*-	*-	*-	*-	*-
!!!system-decoration: s1,s2,s3,s4,s5,s6,s7,s8,s9
